packages/ffe-icons/icons/filled/md/shop.svg

<svg xmlns="http://www.w3.org/2000/svg" height="24" viewBox="0 -960 960 960" width="24"><path d="m445.846-294.616 148.691-94.846q16.462-10.846 16.462-30.538t-16.462-30.538l-148.691-94.846q-18.076-11.846-36.961-1.807-18.884 10.038-18.884 31.73v190.922q0 21.692 18.884 31.73 18.885 10.039 36.961-1.807ZM172.309-140.001q-30.308 0-51.308-21t-21-51.308v-451.536q0-15.461 10.347-25.807 10.346-10.347 25.807-10.347h203.846v-67.691q0-30.307 21-51.307 21-21 51.308-21h135.382q30.308 0 51.308 21t21 51.307v67.691h203.846q15.461 0 25.807 10.347 10.347 10.346 10.347 25.807v451.536q0 30.308-21 51.308t-51.308 21H172.309ZM400-699.999h160v-67.691q0-4.616-3.846-8.462-3.847-3.847-8.463-3.847H412.309q-4.616 0-8.463 3.847Q400-772.306 400-767.69v67.691Z"/></svg>

<svg xmlns="http://www.w3.org/2000/svg" height="24" viewBox="0 -960 960 960" width="24"><path d="m445.85-294.62 148.69-94.84Q611-400.31 611-420q0-19.69-16.46-30.54l-148.69-94.84q-18.08-11.85-36.96-1.81Q390-537.15 390-515.46v190.92q0 21.69 18.89 31.73 18.88 10.04 36.96-1.81ZM172.31-140Q142-140 121-161q-21-21-21-51.31v-451.53q0-15.47 10.35-25.81Q120.69-700 136.16-700H340v-67.69Q340-798 361-819q21-21 51.31-21h135.38Q578-840 599-819q21 21 21 51.31V-700h203.84q15.47 0 25.81 10.35Q860-679.31 860-663.84v451.53Q860-182 839-161q-21 21-51.31 21H172.31ZM400-700h160v-67.69q0-4.62-3.85-8.46-3.84-3.85-8.46-3.85H412.31q-4.62 0-8.46 3.85-3.85 3.84-3.85 8.46V-700Z"/></svg>
